bundle/image/pages/result/explain/img/magnifier.svg

<svg width="262" height="348" viewBox="0 0 262 348" fill="none" xmlns="http://www.w3.org/2000/svg">
<g filter="url(#filter0_d_221_21029)">
<path d="M143.994 217.759C201.151 217.759 247.486 171.417 247.486 114.251C247.486 57.0857 201.151 10.7437 143.994 10.7437C86.8369 10.7437 40.502 57.0857 40.502 114.251C40.502 171.417 86.8369 217.759 143.994 217.759Z" fill="white" stroke="#989898" stroke-width="16" stroke-miterlimit="10"/>
<path d="M56.1288 230.316L10.526 305.538C4.98584 314.677 7.90175 326.577 17.0389 332.118L26.5684 337.897C35.7056 343.438 47.6039 340.522 53.1441 331.383L98.7469 256.161C104.287 247.023 101.371 235.123 92.234 229.582L82.7045 223.803C73.5673 218.262 61.669 221.178 56.1288 230.316Z" fill="#989898"/>
<path d="M87.6112 202.439L53.8856 258.07C51.6695 261.725 52.8359 266.485 56.4908 268.702L64.5644 273.598C68.2192 275.814 72.9786 274.648 75.1946 270.992L108.92 215.362C111.136 211.706 109.97 206.946 106.315 204.73L98.2415 199.834C94.5866 197.618 89.8273 198.784 87.6112 202.439Z" fill="#989898"/>
<path d="M41.3915 301.391L43.5463 302.698L50.6382 291L48.4835 289.693L41.3915 301.391ZM35.243 291.488L36.2956 293.501L39.8042 287.714L38.4406 286.213L35.243 291.488ZM43.283 292.855L51.8199 298.032C52.0867 298.194 52.0861 298.334 51.9119 298.621C51.7333 298.962 51.1112 299.988 50.473 300.948C51.3368 301.051 52.529 301.353 53.2765 301.694C54.2096 300.155 54.828 299.042 54.8985 298.046C55.0143 297.022 54.4491 296.427 53.2794 295.717L44.7014 290.515L43.283 292.855ZM34.0025 290.062C35.0662 292.335 35.59 295.684 35.1559 298.761C35.791 298.5 36.9447 298.218 37.5872 298.13C37.8657 294.847 37.3029 291.053 36.0614 288.055L34.0025 290.062ZM45.3748 302.46C46.7878 302.166 48.6076 302.034 49.6605 302.196L49.6815 299.43C48.5913 299.33 46.8038 299.593 45.4318 299.912L45.3748 302.46ZM37.0169 294.163C38.2876 293.503 39.9862 292.877 41.0074 292.766L40.5395 290.714C39.4934 290.866 37.8315 291.57 36.6223 292.268L37.0169 294.163ZM37.1295 297.403C38.445 296.854 40.1964 296.372 41.2463 296.307L40.9804 294.153C39.8977 294.226 38.1829 294.786 36.896 295.381L37.1295 297.403ZM36.6002 308.647L38.7139 309.928L42.0111 304.49L39.8974 303.208L36.6002 308.647ZM29.1713 297.938L48.4409 309.624L49.822 307.346L30.5524 295.66L29.1713 297.938ZM38.1047 308.156L39.2745 308.865C40.752 309.761 43.3122 311.51 44.4257 313.701C44.9749 313.304 46.0845 312.77 46.6903 312.604C45.4307 309.96 42.3538 307.813 40.6505 306.78L39.3987 306.021L38.1047 308.156ZM37.9181 287.075L38.2669 287.287C40.9959 290.794 41.1039 295.94 39.6298 300.548C40.3096 300.398 41.4458 300.33 42.1287 300.407C43.5606 295.128 43.4708 289.629 39.9726 285.121L38.3461 286.184L38.1793 286.644L37.9181 287.075ZM27.8962 302.217L34.7504 306.374L37.7614 301.407L35.5656 300.076L33.8361 302.928L29.1778 300.104L27.8962 302.217ZM53.8335 280.868L55.9883 282.175L63.0802 270.477L60.9255 269.17L53.8335 280.868ZM47.685 270.965L48.7376 272.978L52.2463 267.191L50.8826 265.69L47.685 270.965ZM55.725 272.332L64.2619 277.509C64.5287 277.671 64.5281 277.811 64.3539 278.098C64.1753 278.439 63.5532 279.465 62.915 280.425C63.7788 280.528 64.971 280.83 65.7185 281.171C66.6516 279.632 67.27 278.519 67.3405 277.523C67.4563 276.499 66.8911 275.904 65.7214 275.194L57.1434 269.992L55.725 272.332ZM46.4445 269.539C47.5083 271.812 48.032 275.161 47.598 278.238C48.233 277.977 49.3867 277.695 50.0292 277.607C50.3077 274.323 49.7449 270.53 48.5034 267.531L46.4445 269.539ZM57.8168 281.937C59.2299 281.643 61.0496 281.511 62.1025 281.673L62.1235 278.907C61.0333 278.807 59.2458 279.07 57.8738 279.389L57.8168 281.937ZM49.4589 273.64C50.7296 272.979 52.4282 272.353 53.4494 272.243L52.9815 270.191C51.9354 270.342 50.2735 271.047 49.0643 271.745L49.4589 273.64ZM49.5716 276.88C50.887 276.331 52.6384 275.849 53.6883 275.784L53.4225 273.63C52.3397 273.703 50.6249 274.263 49.3381 274.858L49.5716 276.88ZM49.0422 288.123L51.1559 289.405L54.4531 283.967L52.3394 282.685L49.0422 288.123ZM41.6133 277.415L60.8829 289.101L62.264 286.823L42.9944 275.137L41.6133 277.415ZM50.5468 287.632L51.7165 288.342C53.194 289.238 55.7542 290.987 56.8677 293.178C57.4169 292.781 58.5265 292.247 59.1323 292.081C57.8727 289.437 54.7958 287.29 53.0925 286.257L51.8407 285.498L50.5468 287.632ZM50.3601 266.552L50.7089 266.764C53.438 270.271 53.5459 275.417 52.0718 280.025C52.7516 279.875 53.8878 279.807 54.5707 279.884C56.0027 274.605 55.9128 269.106 52.4146 264.598L50.7881 265.661L50.6213 266.121L50.3601 266.552ZM40.3383 281.694L47.1924 285.851L50.2034 280.884L48.0076 279.553L46.2781 282.405L41.6198 279.58L40.3383 281.694ZM65.4382 254.505L77.4432 261.785L78.9487 259.301L66.9437 252.021L65.4382 254.505ZM64.7311 261.458L66.968 262.814L74.9682 249.618L72.7313 248.261L64.7311 261.458ZM70.7801 253.702L70.3375 255.96C73.8382 256.343 77.8901 255.909 80.7357 254.687C80.3689 253.903 79.9592 252.588 79.8232 251.748C77.2979 253.136 73.7012 253.93 70.7801 253.702ZM68.6046 256.874C70.2224 259.483 71.1808 263.18 70.9732 266.254C71.7687 266.006 73.1239 265.761 73.9554 265.732C73.8845 262.377 72.5362 258.444 70.4514 255.355L68.6046 256.874ZM60.1986 253.657L63.8566 247.623L66.6065 249.291L62.9485 255.324L60.1986 253.657ZM56.6255 254.69L63.7054 258.983L70.2748 248.147L63.1949 243.854L56.6255 254.69ZM54.1337 256.856C56.4088 259.723 58.2031 263.337 58.8929 266.366C59.7369 266.316 61.5019 266.46 62.2009 266.604C61.263 262.919 58.921 258.496 56.266 255.005L54.1337 256.856ZM58.6237 262.273L72.1062 270.449L73.5246 268.11L57.7232 258.527L57.6902 258.535L58.6237 262.273Z" fill="white"/>
</g>
<defs>
<filter id="filter0_d_221_21029" x="5.71973" y="0.743652" width="255.766" height="345.96" filterUnits="userSpaceOnUse" color-interpolation-filters="sRGB">
<feFlood flood-opacity="0" result="BackgroundImageFix"/>
<feColorMatrix in="SourceAlpha" type="matrix" values="0 0 0 0 0 0 0 0 0 0 0 0 0 0 0 0 0 0 127 0" result="hardAlpha"/>
<feOffset dx="2" dy="2"/>
<feGaussianBlur stdDeviation="2"/>
<feColorMatrix type="matrix" values="0 0 0 0 0.486275 0 0 0 0 0.392157 0 0 0 0 0 0 0 0 0.25 0"/>
<feBlend mode="normal" in2="BackgroundImageFix" result="effect1_dropShadow_221_21029"/>
<feBlend mode="normal" in="SourceGraphic" in2="effect1_dropShadow_221_21029" result="shape"/>
</filter>
</defs>
</svg>

<svg width="262" height="348" fill="none" xmlns="http://www.w3.org/2000/svg"><g filter="url(#a)"><path d="M143.994 217.759c57.157 0 103.492-46.342 103.492-103.508 0-57.165-46.335-103.507-103.492-103.507-57.157 0-103.492 46.342-103.492 103.507 0 57.166 46.335 103.508 103.492 103.508z" fill="#fff" stroke="#989898" stroke-width="16" stroke-miterlimit="10"/><path d="m56.129 230.316-45.603 75.222c-5.54 9.139-2.624 21.039 6.513 26.58l9.53 5.779c9.137 5.541 21.035 2.625 26.575-6.514l45.603-75.222c5.54-9.138 2.624-21.038-6.513-26.579l-9.53-5.779c-9.137-5.541-21.035-2.625-26.575 6.513z" fill="#989898"/><path d="M87.611 202.439 53.886 258.07a7.741 7.741 0 0 0 2.605 10.632l8.073 4.896a7.738 7.738 0 0 0 10.63-2.606l33.726-55.63a7.74 7.74 0 0 0-2.605-10.632l-8.073-4.896a7.74 7.74 0 0 0-10.63 2.605z" fill="#989898"/><path d="m41.392 301.391 2.154 1.307L50.638 291l-2.154-1.307-7.093 11.698zm-6.149-9.903 1.053 2.013 3.508-5.787-1.363-1.501-3.198 5.275zm8.04 1.367 8.537 5.177c.267.162.266.302.092.589-.179.341-.8 1.367-1.439 2.327.864.103 2.056.405 2.803.746.934-1.539 1.552-2.652 1.622-3.648.116-1.024-.449-1.619-1.619-2.329l-8.578-5.202-1.418 2.34zm-9.28-2.793c1.063 2.273 1.587 5.622 1.153 8.699.635-.261 1.789-.543 2.431-.631.279-3.283-.284-7.077-1.526-10.075l-2.059 2.007zm11.372 12.398c1.413-.294 3.233-.426 4.285-.264l.022-2.766c-1.09-.1-2.878.163-4.25.482l-.057 2.548zm-8.358-8.297c1.27-.66 2.97-1.286 3.99-1.397l-.468-2.052c-1.046.152-2.708.856-3.917 1.554l.395 1.895zm.112 3.24c1.316-.549 3.067-1.031 4.117-1.096l-.266-2.154c-1.082.073-2.797.633-4.084 1.228l.233 2.022zm-.529 11.244 2.114 1.281 3.297-5.438-2.114-1.282-3.297 5.439zm-7.429-10.709 19.27 11.686 1.381-2.278-19.27-11.686-1.38 2.278zm8.934 10.218 1.17.709c1.477.896 4.037 2.645 5.15 4.836.55-.397 1.66-.931 2.265-1.097-1.26-2.644-4.336-4.791-6.04-5.824l-1.251-.759-1.294 2.135zm-.187-21.081.349.212c2.729 3.507 2.837 8.653 1.363 13.261.68-.15 1.816-.218 2.499-.141 1.432-5.279 1.342-10.778-2.156-15.286l-1.627 1.063-.167.46-.26.431zm-10.022 15.142 6.854 4.157 3.011-4.967-2.195-1.331-1.73 2.852-4.658-2.824-1.282 2.113zm25.938-21.349 2.154 1.307 7.092-11.698-2.154-1.307-7.093 11.698zm-6.149-9.903 1.053 2.013 3.508-5.787-1.363-1.501-3.198 5.275zm8.04 1.367 8.537 5.177c.267.162.266.302.092.589-.179.341-.8 1.367-1.439 2.327.864.103 2.056.405 2.804.746.933-1.539 1.551-2.652 1.622-3.648.115-1.024-.45-1.619-1.62-2.329l-8.578-5.202-1.418 2.34zm-9.28-2.793c1.063 2.273 1.587 5.622 1.153 8.699.635-.261 1.789-.543 2.431-.631.279-3.284-.284-7.077-1.526-10.076l-2.059 2.008zm11.372 12.398c1.413-.294 3.233-.426 4.285-.264l.022-2.766c-1.09-.1-2.878.163-4.25.482l-.057 2.548zm-8.358-8.297c1.27-.661 2.97-1.287 3.99-1.397l-.468-2.052c-1.046.151-2.708.856-3.917 1.554l.395 1.895zm.113 3.24c1.315-.549 3.066-1.031 4.116-1.096l-.266-2.154c-1.082.073-2.797.633-4.084 1.228l.234 2.022zm-.53 11.243 2.114 1.282 3.297-5.438-2.114-1.282-3.297 5.438zm-7.429-10.708 19.27 11.686 1.381-2.278-19.27-11.686-1.38 2.278zm8.934 10.217 1.17.71c1.477.896 4.037 2.645 5.15 4.836.55-.397 1.66-.931 2.265-1.097-1.26-2.644-4.336-4.791-6.04-5.824l-1.251-.759-1.294 2.134zm-.187-21.08.349.212c2.729 3.507 2.837 8.653 1.363 13.261.68-.15 1.816-.218 2.499-.141 1.432-5.279 1.342-10.778-2.156-15.286l-1.627 1.063-.167.46-.26.431zm-10.022 15.142 6.854 4.157 3.011-4.967-2.195-1.331-1.73 2.852-4.658-2.825-1.282 2.114zm25.1-27.189 12.005 7.28 1.506-2.484-12.005-7.28-1.506 2.484zm-.707 6.953 2.237 1.356 8-13.196-2.237-1.357-8 13.197zm6.05-7.756-.444 2.258c3.501.383 7.553-.051 10.399-1.273-.367-.784-.777-2.099-.913-2.939-2.525 1.388-6.122 2.182-9.043 1.954zm-2.176 3.172c1.617 2.609 2.576 6.306 2.368 9.38.796-.248 2.15-.493 2.982-.522-.07-3.355-1.419-7.288-3.504-10.377l-1.846 1.519zm-8.406-3.217 3.658-6.034 2.75 1.668-3.658 6.033-2.75-1.667zm-3.573 1.033 7.08 4.293 6.569-10.836-7.08-4.293-6.57 10.836zm-2.492 2.166c2.275 2.867 4.07 6.481 4.759 9.51.844-.05 2.609.094 3.308.238-.938-3.685-3.28-8.108-5.935-11.599l-2.132 1.851zm4.49 5.417 13.482 8.176 1.419-2.339-15.802-9.583-.033.008.934 3.738z" fill="#fff"/></g><defs><filter id="a" x="5.72" y=".744" width="255.766" height="345.96" filterUnits="userSpaceOnUse" color-interpolation-filters="sRGB"><feFlood flood-opacity="0" result="BackgroundImageFix"/><feColorMatrix in="SourceAlpha" values="0 0 0 0 0 0 0 0 0 0 0 0 0 0 0 0 0 0 127 0" result="hardAlpha"/><feOffset dx="2" dy="2"/><feGaussianBlur stdDeviation="2"/><feColorMatrix values="0 0 0 0 0.486275 0 0 0 0 0.392157 0 0 0 0 0 0 0 0 0.25 0"/><feBlend in2="BackgroundImageFix" result="effect1_dropShadow_221_21029"/><feBlend in="SourceGraphic" in2="effect1_dropShadow_221_21029" result="shape"/></filter></defs></svg>
